images_sukapura_svg/cmd/sc_setborderstyle.svg

<svg viewBox="0 0 16 16" xmlns="http://www.w3.org/2000/svg"><path d="m1 1c-.554 0-1 .446-1 1v11h1v-5-1-5h6 1 6v5 1 5h1v-5-1-5c0-.554-.446-1-1-1h-6-1z" fill="#69696e"/><path d="m1 2h13v11h-13z" fill="#fff"/><path d="m7 2v5h-6v1h6v5h1v-5h6v-1h-6v-5z" fill="#bababa"/><path d="m0 14h15v2h-15z" fill="#ff9500"/></svg>

<?xml version="1.0" encoding="UTF-8" standalone="no"?>
<svg
   xmlns:dc="http://purl.org/dc/elements/1.1/"
   xmlns:cc="http://creativecommons.org/ns#"
   xmlns:rdf="http://www.w3.org/1999/02/22-rdf-syntax-ns#"
   xmlns:svg="http://www.w3.org/2000/svg"
   xmlns="http://www.w3.org/2000/svg"
   xmlns:sodipodi="http://sodipodi.sourceforge.net/DTD/sodipodi-0.dtd"
   xmlns:inkscape="http://www.inkscape.org/namespaces/inkscape"
   viewBox="0 0 16 16"
   version="1.1"
   id="svg8"
   sodipodi:docname="sc_setborderstyle.svg"
   inkscape:version="0.92.3 (unknown)"
   inkscape:export-filename="/home/rizmut/Dokumen/Rizmut/Github/libreoffice-style-sukapura/images_sukapura/cmd/sc_setborderstyle.png"
   inkscape:export-xdpi="96"
   inkscape:export-ydpi="96">
  <metadata
     id="metadata14">
    <rdf:RDF>
      <cc:Work
         rdf:about="">
        <dc:format>image/svg+xml</dc:format>
        <dc:type
           rdf:resource="http://purl.org/dc/dcmitype/StillImage" />
        <dc:title></dc:title>
      </cc:Work>
    </rdf:RDF>
  </metadata>
  <defs
     id="defs12" />
  <sodipodi:namedview
     pagecolor="#ffffff"
     bordercolor="#666666"
     borderopacity="1"
     objecttolerance="10"
     gridtolerance="10"
     guidetolerance="10"
     inkscape:pageopacity="0"
     inkscape:pageshadow="2"
     inkscape:window-width="1366"
     inkscape:window-height="699"
     id="namedview10"
     showgrid="true"
     inkscape:zoom="14.75"
     inkscape:cx="-0.71186441"
     inkscape:cy="8"
     inkscape:window-x="0"
     inkscape:window-y="0"
     inkscape:window-maximized="1"
     inkscape:current-layer="svg8">
    <inkscape:grid
       type="xygrid"
       id="grid821" />
  </sodipodi:namedview>
  <path
     style="fill:#69696e;fill-opacity:1"
     d="M 1 1 C 0.446 1 0 1.446 0 2 L 0 13 L 1 13 L 1 8 L 1 7 L 1 2 L 7 2 L 8 2 L 14 2 L 14 7 L 14 8 L 14 13 L 15 13 L 15 8 L 15 7 L 15 2 C 15 1.446 14.554 1 14 1 L 8 1 L 7 1 L 1 1 z "
     id="path1500" />
  <path
     d="m1 2h13v11h-13z"
     fill="#fff"
     id="path2" />
  <path
     style="fill:#bababa;fill-opacity:1"
     d="M 7 2 L 7 7 L 1 7 L 1 8 L 7 8 L 7 13 L 8 13 L 8 8 L 14 8 L 14 7 L 8 7 L 8 2 L 7 2 z "
     id="path4" />
  <path
     d="m0 14h15v2h-15z"
     fill="#eac282"
     id="path6"
     style="fill:#ff9500;fill-opacity:1" />
</svg>
